;FLAVOR:Marlin
;TIME:3820
;Filament used: 1.68815m
;Layer height: 0.1
;MINX:103.491
;MINY:79.421
;MINZ:0.15
;MAXX:146.509
;MAXY:130.571
;MAXZ:10.35
;Generated with Cura_SteamEngine 4.1.0
M82 ;absolute extrusion mode
G21 ; set units to millimeters
G90 ; use absolute positioning
M82 ; absolute extrusion mode
M104 S200 ; set extruder temp
M140 S60 ; set bed temp
M190 S60 ; wait for bed temp
M109 S200 ; wait for extruder temp
G28 W ; home all without mesh bed level
G80 ; mesh bed leveling
G92 E0.0 ; reset extruder distance position
G1 Y-3.0 F1000.0 ; go outside print area
G1 X60.0 E9.0 F1000.0 ; intro line
G1 X100.0 E21.5 F1000.0 ; intro line
G92 E0.0 ; reset extruder distance position
G92 E0
G92 E0
G1 F2100 E-0.8
;LAYER_COUNT:103
;LAYER:0
M107
G0 F3600 X104.289 Y87.36 Z0.15
;TYPE:SKIRT
G1 F2100 E0
G1 F1800 X104.657 Y86.97 E0.01338
G1 X105.079 Y86.639 E0.02675
G1 X105.546 Y86.374 E0.04015
G1 X105.965 Y86.207 E0.0514
G1 X106.381 Y86.071 E0.06232
G1 X106.455 Y86.048 E0.06425
G1 X107.157 Y85.835 E0.08255
G1 X107.331 Y85.787 E0.08705
G1 X108.313 Y85.542 E0.1123
G1 X108.374 Y85.527 E0.11387
G1 X133.211 Y79.788 E0.74975
G1 X133.305 Y79.768 E0.75215
G1 X133.655 Y79.697 E0.76106
G1 X133.775 Y79.675 E0.7641
G1 X134.347 Y79.579 E0.77857
G1 X134.414 Y79.568 E0.78026
G1 X135.141 Y79.46 E0.7986
G1 X135.676 Y79.421 E0.81198
G1 X136.211 Y79.462 E0.82536
G1 X136.733 Y79.582 E0.83873
G1 X137.232 Y79.778 E0.8521
G1 X137.697 Y80.046 E0.86549
G1 X138.116 Y80.38 E0.87885
G1 X138.482 Y80.773 E0.89225
G1 X138.784 Y81.215 E0.9056
G1 X139.018 Y81.698 E0.91899
G1 X139.165 Y82.16 E0.93109
G1 X139.3 Y82.708 E0.94516
G1 X139.313 Y82.759 E0.94648
G1 X140.824 Y89.299 E1.11392
G1 X140.833 Y89.34 E1.11496
G1 X140.985 Y90.035 E1.13271
G1 X141.025 Y90.248 E1.13812
G1 X141.171 Y91.185 E1.16177
G1 X141.644 Y93.933 E1.23133
G1 X142.175 Y96.567 E1.29836
G1 X142.794 Y99.249 E1.36702
G1 X143.481 Y101.88 E1.43485
G1 X144.242 Y104.494 E1.50276
G1 X144.566 Y105.563 E1.53063
G1 X144.616 Y105.745 E1.53533
G1 X144.758 Y106.32 E1.55011
G1 X144.771 Y106.372 E1.55145
G1 X146.28 Y112.902 E1.71863
G1 X146.291 Y112.952 E1.71991
G1 X146.435 Y113.618 E1.7369
G1 X146.509 Y114.149 E1.75028
G1 X146.503 Y114.686 E1.76367
G1 X146.396 Y115.3 E1.77922
G1 X146.298 Y115.672 E1.78882
G1 X145.595 Y118.382 E1.85866
G1 X144.886 Y121.501 E1.93844
G1 X144.661 Y122.579 E1.96592
G1 X144.513 Y123.094 E1.97928
G1 X144.289 Y123.581 E1.99265
G1 X143.996 Y124.03 E2.00603
G1 X143.639 Y124.431 E2.01942
G1 X143.227 Y124.774 E2.03279
G1 X142.769 Y125.052 E2.04616
G1 X142.07 Y125.32 E2.06483
G1 X141.865 Y125.375 E2.07013
G1 X141.784 Y125.396 E2.07221
G1 X141.554 Y125.452 E2.07812
G1 X141.51 Y125.462 E2.07924
G1 X140.247 Y125.753 E2.11158
G1 X140.202 Y125.763 E2.11273
G1 X139.501 Y125.915 E2.13062
G1 X139.396 Y125.936 E2.13329
G1 X138.065 Y126.183 E2.16706
G1 X135.383 Y126.723 E2.2353
G1 X133.959 Y127.041 E2.2717
G1 X127.677 Y128.492 E2.43253
G1 X124.971 Y129.158 E2.50205
G1 X123.668 Y129.518 E2.53577
G1 X123.648 Y129.524 E2.53629
G1 X122.259 Y129.899 E2.57218
G1 X122.181 Y129.919 E2.57419
G1 X121.498 Y130.087 E2.59173
G1 X121.451 Y130.098 E2.59294
G1 X120.442 Y130.332 E2.61877
G1 X120.388 Y130.344 E2.62015
G1 X119.679 Y130.497 E2.63825
G1 X119.148 Y130.571 E2.65162
G1 X118.612 Y130.565 E2.66499
G1 X118.083 Y130.479 E2.67836
G1 X117.572 Y130.316 E2.69174
G1 X117.091 Y130.079 E2.70512
G1 X116.65 Y129.773 E2.71851
G1 X116.261 Y129.404 E2.73188
G1 X115.999 Y129.082 E2.74224
G1 X115.552 Y128.461 E2.76132
G1 X113.897 Y126.229 E2.83064
G1 X111.516 Y123.236 E2.92604
G1 X111.214 Y122.793 E2.93942
G1 X110.981 Y122.309 E2.95282
G1 X110.839 Y121.862 E2.96452
G1 X110.7 Y121.302 E2.97891
G1 X110.686 Y121.245 E2.98037
G1 X109.173 Y114.697 E3.14802
G1 X109.162 Y114.645 E3.14934
G1 X109.019 Y113.981 E3.16629
G1 X108.983 Y113.789 E3.17116
G1 X108.828 Y112.817 E3.19571
G1 X108.355 Y110.069 E3.26527
G1 X107.826 Y107.443 E3.33209
G1 X107.198 Y104.728 E3.40161
G1 X106.521 Y102.134 E3.46848
G1 X105.768 Y99.552 E3.53557
G1 X105.433 Y98.444 E3.56445
G1 X105.384 Y98.265 E3.56908
G1 X105.242 Y97.69 E3.58385
G1 X105.229 Y97.637 E3.58521
G1 X103.717 Y91.092 E3.75278
G1 X103.706 Y91.042 E3.75405
G1 X103.565 Y90.389 E3.77072
G1 X103.491 Y89.858 E3.78409
G1 X103.497 Y89.321 E3.79749
G1 X103.583 Y88.792 E3.81086
G1 X103.746 Y88.281 E3.82424
G1 X103.983 Y87.8 E3.83761
G1 X104.289 Y87.36 E3.85098
G0 F3600 X104.713 Y87.48
G1 F1800 X105.081 Y87.133 E3.8636
G1 X105.499 Y86.849 E3.87621
G1 X106.09 Y86.587 E3.89233
G1 X106.506 Y86.451 E3.90325
G1 X106.571 Y86.431 E3.90495
G1 X107.273 Y86.218 E3.92325
G1 X107.427 Y86.175 E3.92723
G1 X108.409 Y85.93 E3.95248
G1 X108.464 Y85.917 E3.95389
G1 X133.301 Y80.178 E4.58978
G1 X133.385 Y80.16 E4.59192
G1 X133.735 Y80.089 E4.60083
G1 X133.841 Y80.069 E4.60352
G1 X134.413 Y79.973 E4.61799
G1 X134.473 Y79.964 E4.6195
G1 X135.2 Y79.856 E4.63784
G1 X135.704 Y79.821 E4.65044
G1 X136.208 Y79.866 E4.66306
G1 X136.698 Y79.991 E4.67568
G1 X137.162 Y80.19 E4.68827
G1 X137.589 Y80.461 E4.70089
G1 X137.969 Y80.795 E4.71351
G1 X138.291 Y81.185 E4.72612
G1 X138.547 Y81.62 E4.73871
G1 X138.777 Y82.256 E4.75558
G1 X138.912 Y82.804 E4.76966
G1 X138.923 Y82.849 E4.77082
G1 X140.434 Y89.389 E4.93826
G1 X140.442 Y89.425 E4.93918
G1 X140.594 Y90.12 E4.95692
G1 X140.63 Y90.31 E4.96175
G1 X140.777 Y91.253 E4.98555
G1 X141.252 Y94.008 E5.05529
G1 X141.787 Y96.664 E5.12288
G1 X142.405 Y99.343 E5.19146
G1 X143.089 Y101.962 E5.25898
G1 X143.858 Y104.606 E5.32767
G1 X144.183 Y105.679 E5.35564
G1 X144.228 Y105.841 E5.35983
G1 X144.37 Y106.416 E5.3746
G1 X144.381 Y106.463 E5.37581
G1 X145.89 Y112.993 E5.54299
G1 X145.9 Y113.037 E5.54412
G1 X146.044 Y113.703 E5.56112
G1 X146.111 Y114.204 E5.57372
G1 X146.099 Y114.709 E5.58633
G1 X146.009 Y115.198 E5.59873
G1 X145.91 Y115.571 E5.60836
G1 X145.911 Y115.571 E5.60838
G1 X145.206 Y118.289 E5.67842
G1 X144.488 Y121.446 E5.75919
G1 X144.269 Y122.497 E5.78597
G1 X144.127 Y122.982 E5.79857
G1 X143.911 Y123.439 E5.81118
G1 X143.625 Y123.856 E5.8238
G1 X143.277 Y124.222 E5.8364
G1 X142.875 Y124.53 E5.84903
G1 X142.43 Y124.77 E5.86164
G1 X141.966 Y124.934 E5.87392
G1 X141.761 Y124.989 E5.87921
G1 X141.689 Y125.007 E5.88106
G1 X141.459 Y125.063 E5.88697
G1 X141.42 Y125.072 E5.88797
G1 X140.157 Y125.363 E5.9203
G1 X140.117 Y125.372 E5.92132
G1 X139.416 Y125.524 E5.93921
G1 X139.323 Y125.543 E5.94158
G1 X137.979 Y125.793 E5.97568
G1 X135.268 Y126.338 E6.04466
G1 X133.895 Y126.645 E6.07976
G1 X127.567 Y128.107 E6.24177
G1 X124.899 Y128.764 E6.31031
G1 X123.561 Y129.133 E6.34493
G1 X123.544 Y129.137 E6.34537
G1 X122.155 Y129.512 E6.38126
G1 X122.085 Y129.53 E6.38306
G1 X121.402 Y129.698 E6.4006
G1 X121.361 Y129.708 E6.40166
G1 X120.352 Y129.942 E6.42749
G1 X120.304 Y129.953 E6.42872
G1 X119.595 Y130.106 E6.44682
G1 X119.094 Y130.173 E6.45942
G1 X118.589 Y130.161 E6.47203
G1 X118.091 Y130.069 E6.48466
G1 X117.615 Y129.9 E6.49726
G1 X117.171 Y129.658 E6.50987
G1 X116.771 Y129.349 E6.52248
G1 X116.323 Y128.848 E6.53925
G1 X115.847 Y128.187 E6.55957
G1 X114.222 Y125.996 E6.62761
G1 X111.829 Y122.987 E6.72351
G1 X111.546 Y122.568 E6.73613
G1 X111.333 Y122.109 E6.74875
G1 X111.227 Y121.766 E6.75771
G1 X111.088 Y121.206 E6.7721
G1 X111.076 Y121.155 E6.77341
G1 X109.563 Y114.607 E6.94105
G1 X109.553 Y114.561 E6.94222
G1 X109.41 Y113.897 E6.95917
G1 X109.378 Y113.726 E6.96351
G1 X109.222 Y112.749 E6.98819
G1 X108.747 Y109.994 E7.05792
G1 X108.214 Y107.346 E7.1253
G1 X107.589 Y104.642 E7.19453
G1 X106.904 Y102.016 E7.26223
G1 X106.152 Y99.439 E7.3292
G1 X105.816 Y98.328 E7.35815
G1 X105.772 Y98.169 E7.36227
G1 X105.63 Y97.594 E7.37704
G1 X105.619 Y97.547 E7.37824
G1 X104.107 Y91.002 E7.54581
G1 X104.097 Y90.957 E7.54696
G1 X103.956 Y90.304 E7.56362
G1 X103.889 Y89.803 E7.57623
G1 X103.901 Y89.298 E7.58883
G1 X103.993 Y88.801 E7.60144
G1 X104.162 Y88.324 E7.61407
G1 X104.404 Y87.88 E7.62668
G1 X104.713 Y87.48 E7.63929
G1 F2100 E6.83929
;MESH:cd5a7fc4-0097-4799-b32c-1c32ac6e2306.stl
G0 F3600 X108.761 Y88.452
G0 X109.05 Y89.695
G0 X133.899 Y84.107
G0 X133.952 Y84.023
;TYPE:WALL-INNER
G1 F2100 E7.63929
G1 F1800 X135.226 Y83.731 E7.67189
G1 X136.757 Y90.356 E7.84151
G1 X135.492 Y90.651 E7.87391
G1 X139.41 Y107.607 E8.30802
G1 X140.677 Y107.315 E8.34046
G1 X142.208 Y113.939 E8.51005
G1 X140.944 Y114.234 E8.54243
G1 X141.391 Y116.18 E8.59224
G1 X139.331 Y116.659 E8.64499
G1 X140.426 Y121.401 E8.7664
G1 X139.107 Y121.706 E8.80017
G1 X139.049 Y121.554 E8.80423
G1 X120.667 Y125.802 E9.27485
G1 X120.683 Y125.965 E9.27894
G1 X119.366 Y126.269 E9.31265
G1 X118.269 Y121.525 E9.43412
G1 X116.49 Y121.935 E9.47966
G1 X116.037 Y119.989 E9.5295
G1 X114.774 Y120.279 E9.56182
G1 X113.243 Y113.654 E9.73144
G1 X114.508 Y113.36 E9.76384
G1 X110.59 Y96.405 E10.19793
G1 X109.323 Y96.696 E10.23035
G1 X107.792 Y90.071 E10.39997
G1 X109.055 Y89.776 E10.43233
G1 X109.034 Y89.685 E10.43465
G1 X133.932 Y83.932 E11.0721
G1 X133.952 Y84.023 E11.07443
G0 F3600 X134.257 Y83.543
;TYPE:WALL-OUTER
G1 F1800 X135.526 Y83.252 E11.1069
G1 X137.237 Y90.655 E11.29644
G1 X135.972 Y90.95 E11.32884
G1 X139.71 Y107.127 E11.74301
G1 X140.977 Y106.835 E11.77545
G1 X142.688 Y114.238 E11.96498
G1 X141.423 Y114.533 E11.99739
G1 X141.871 Y116.48 E12.04722
G1 X139.811 Y116.958 E12.09997
G1 X140.905 Y121.697 E12.2213
G1 X140.906 Y121.701 E12.2214
G1 X138.858 Y122.174 E12.27383
G1 X138.8 Y122.022 E12.27789
G1 X121.099 Y126.113 E12.73108
G1 X121.115 Y126.276 E12.73517
G1 X119.066 Y126.749 E12.78763
G1 X117.969 Y122.005 E12.90909
G1 X116.191 Y122.415 E12.95461
G1 X115.738 Y120.468 E13.00447
G1 X114.474 Y120.759 E13.03683
G1 X112.763 Y113.355 E13.22639
G1 X114.028 Y113.061 E13.25878
G1 X110.29 Y96.884 E13.67295
G1 X109.023 Y97.175 E13.70538
G1 X107.312 Y89.772 E13.89492
G1 X108.576 Y89.477 E13.9273
G1 X108.555 Y89.385 E13.92965
G1 X134.237 Y83.451 E14.58717
G1 X134.257 Y83.543 E14.58952
G0 F3600 X134.452 Y83.499
G0 X134.934 Y84.198
;TYPE:SKIN
G1 F1800 X136.289 Y90.065 E14.73972
G1 X135.024 Y90.36 E14.77213
G1 X139.118 Y108.075 E15.22568
G1 X140.385 Y107.783 E15.25811
G1 X141.74 Y113.648 E15.40827
G1 X140.476 Y113.943 E15.44064
G1 X140.923 Y115.888 E15.49043
G1 X138.863 Y116.367 E15.54318
G1 X139.958 Y121.109 E15.66459
G1 X139.351 Y121.25 E15.68013
G1 X139.293 Y121.098 E15.68419
G1 X120.246 Y125.499 E16.17184
G1 X120.262 Y125.662 E16.17592
G1 X119.658 Y125.801 E16.19138
G1 X118.561 Y121.057 E16.31285
G1 X116.782 Y121.467 E16.35839
G1 X116.329 Y119.521 E16.40823
G1 X115.066 Y119.811 E16.44055
G1 X113.711 Y113.946 E16.59071
G1 X114.976 Y113.652 E16.62311
G1 X110.882 Y95.937 E17.07666
G1 X109.615 Y96.228 E17.10909
G1 X108.26 Y90.362 E17.25927
G1 X109.523 Y90.067 E17.29162
G1 X109.502 Y89.977 E17.29393
G1 X133.636 Y84.4 E17.91182
G1 X133.656 Y84.491 E17.91414
G1 X134.934 Y84.198 E17.94685
G0 F3600 X134.307 Y84.526
G1 F1800 X134.979 Y85.199 E17.97057
G0 F3600 X135.149 Y85.934
G1 F1800 X133.847 Y84.632 E18.0165
G0 F3600 X133.308 Y84.659
G1 F1800 X135.319 Y86.67 E18.08745
G0 F3600 X135.489 Y87.406
G1 F1800 X132.849 Y84.766 E18.18058
G0 F3600 X132.39 Y84.872
G1 F1800 X135.659 Y88.141 E18.2959
G0 F3600 X135.828 Y88.876
G1 F1800 X131.93 Y84.978 E18.43341
G0 F3600 X131.47 Y85.084
G1 F1800 X135.999 Y89.613 E18.59319
G0 F3600 X135.811 Y89.991
G1 F1800 X131.011 Y85.19 E18.76254
G0 F3600 X130.552 Y85.297
G1 F1800 X135.352 Y90.098 E18.93189
G0 F3600 X134.894 Y90.205
G1 F1800 X130.092 Y85.403 E19.10129
G0 F3600 X129.633 Y85.509
G1 F1800 X134.945 Y90.822 E19.2887
G0 F3600 X135.116 Y91.558
G1 F1800 X129.173 Y85.615 E19.49836
G0 F3600 X128.713 Y85.721
G1 F1800 X135.285 Y92.293 E19.7302
G0 F3600 X135.455 Y93.029
G1 F1800 X128.255 Y85.828 E19.98422
G0 F3600 X127.795 Y85.934
G1 F1800 X135.625 Y93.765 E20.26046
G0 F3600 X135.795 Y94.5
G1 F1800 X127.335 Y86.04 E20.55891
G0 F3600 X126.876 Y86.146
G1 F1800 X135.965 Y95.235 E20.87955
G0 F3600 X136.135 Y95.972
G1 F1800 X126.416 Y86.252 E21.22243
G0 F3600 X125.956 Y86.358
G1 F1800 X136.305 Y96.707 E21.58752
G0 F3600 X136.475 Y97.443
G1 F1800 X125.498 Y86.465 E21.97478
G0 F3600 X125.038 Y86.571
G1 F1800 X136.645 Y98.178 E22.38425
G0 F3600 X136.815 Y98.914
G1 F1800 X124.578 Y86.677 E22.81595
G0 F3600 X124.119 Y86.783
G1 F1800 X136.985 Y99.65 E23.26985
G0 F3600 X137.155 Y100.385
G1 F1800 X123.659 Y86.889 E23.74595
G0 F3600 X123.2 Y86.996
G1 F1800 X137.325 Y101.121 E24.24425
G0 F3600 X137.495 Y101.857
G1 F1800 X122.741 Y87.102 E24.76476
G0 F3600 X122.281 Y87.208
G1 F1800 X137.665 Y102.592 E25.30747
G0 F3600 X137.835 Y103.328
G1 F1800 X121.821 Y87.314 E25.87241
G0 F3600 X121.362 Y87.421
G1 F1800 X138.005 Y104.064 E26.45953
G0 F3600 X138.175 Y104.799
G1 F1800 X120.903 Y87.527 E27.06885
G0 F3600 X120.443 Y87.633
G1 F1800 X138.345 Y105.535 E27.70039
G0 F3600 X138.515 Y106.271
G1 F1800 X119.983 Y87.739 E28.35416
G0 F3600 X119.524 Y87.845
G1 F1800 X138.684 Y107.006 E29.03009
G0 F3600 X138.855 Y107.742
G1 F1800 X119.064 Y87.952 E29.72826
G0 F3600 X118.605 Y88.058
G1 F1800 X140.761 Y110.214 E30.50987
G0 F3600 X140.591 Y109.478
G1 F1800 X139.325 Y108.212 E30.55453
G0 F3600 X139.785 Y108.106
G1 F1800 X140.42 Y108.742 E30.57695
G1 X140.49 Y108.812
G0 F3600 X140.931 Y110.95
G1 F1800 X118.146 Y88.164 E31.38077
G0 F3600 X117.686 Y88.27
G1 F1800 X141.101 Y111.686 E32.20682
G0 F3600 X141.271 Y112.421
G1 F1800 X117.226 Y88.377 E33.05505
G0 F3600 X116.767 Y88.483
G1 F1800 X141.441 Y113.157 E33.92549
G0 F3600 X141.287 Y113.568
G1 F1800 X116.307 Y88.589 E34.80671
G0 F3600 X115.848 Y88.695
G1 F1800 X140.828 Y113.675 E35.68795
G0 F3600 X140.369 Y113.782
G1 F1800 X115.389 Y88.802 E36.56919
G0 F3600 X114.929 Y88.908
G1 F1800 X140.386 Y114.365 E37.46725
G0 F3600 X140.556 Y115.1
G1 F1800 X114.469 Y89.014 E38.38752
G0 F3600 X114.01 Y89.12
G1 F1800 X140.654 Y115.763 E39.32744
G0 F3600 X140.195 Y115.87
G1 F1800 X113.551 Y89.226 E40.26738
G0 F3600 X113.091 Y89.333
G1 F1800 X139.736 Y115.977 E41.20734
G0 F3600 X139.277 Y116.084
G1 F1800 X112.632 Y89.439 E42.14731
G0 F3600 X112.172 Y89.545
G1 F1800 X138.818 Y116.191 E43.08732
G0 F3600 X138.751 Y116.689
G1 F1800 X111.712 Y89.651 E44.04118
G0 F3600 X111.253 Y89.757
G1 F1800 X138.921 Y117.425 E45.01724
G0 F3600 X139.091 Y118.161
G1 F1800 X110.794 Y89.864 E46.0155
G0 F3600 X110.334 Y89.97
G1 F1800 X139.261 Y118.896 E47.03596
G0 F3600 X139.431 Y119.632
G1 F1800 X109.875 Y90.076 E48.07862
G0 F3600 X109.491 Y90.258
G1 F1800 X139.601 Y120.367 E49.14082
G0 F3600 X139.66 Y120.993
G1 F1800 X109.033 Y90.366 E50.22127
G0 F3600 X108.574 Y90.472
G1 F1800 X139.066 Y120.964 E51.29696
G0 F3600 X138.607 Y121.07
G1 F1800 X108.608 Y91.071 E52.35525
G0 F3600 X108.777 Y91.807
G1 F1800 X138.147 Y121.176 E53.39134
G0 F3600 X137.687 Y121.282
G1 F1800 X108.947 Y92.542 E54.40522
G0 F3600 X109.117 Y93.278
G1 F1800 X137.228 Y121.389 E55.39691
G0 F3600 X136.769 Y121.495
G1 F1800 X111.022 Y95.749 E56.30519
G0 F3600 X110.997 Y95.723
G1 F1800 X109.287 Y94.014 E56.3655
G0 F3600 X109.457 Y94.749
G1 F1800 X110.537 Y95.829 E56.4036
G0 F3600 X110.078 Y95.936
G1 F1800 X109.627 Y95.485 E56.41951
G0 F3600 X111.193 Y96.485
G1 F1800 X136.309 Y121.601 E57.30554
G0 F3600 X135.85 Y121.707
G1 F1800 X111.362 Y97.22 E58.1694
G0 F3600 X111.532 Y97.956
G1 F1800 X135.39 Y121.813 E59.01104
G0 F3600 X134.93 Y121.92
G1 F1800 X111.703 Y98.692 E59.83046
G0 F3600 X111.872 Y99.427
G1 F1800 X134.471 Y122.026 E60.6277
G0 F3600 X134.011 Y122.132
G1 F1800 X112.043 Y100.163 E61.40269
G0 F3600 X112.212 Y100.899
G1 F1800 X133.551 Y122.238 E62.15549
G0 F3600 X133.093 Y122.345
G1 F1800 X112.382 Y101.634 E62.88612
G0 F3600 X112.553 Y102.37
G1 F1800 X132.633 Y122.451 E63.59452
G0 F3600 X132.173 Y122.557
G1 F1800 X112.722 Y103.106 E64.2807
G0 F3600 X112.893 Y103.842
G1 F1800 X131.714 Y122.663 E64.94466
G0 F3600 X131.254 Y122.769
G1 F1800 X113.062 Y104.577 E65.58644
G0 F3600 X113.233 Y105.313
G1 F1800 X130.794 Y122.875 E66.20596
G0 F3600 X130.335 Y122.981
G1 F1800 X113.402 Y106.049 E66.8033
G0 F3600 X113.572 Y106.784
G1 F1800 X129.876 Y123.088 E67.37847
G0 F3600 X129.416 Y123.194
G1 F1800 X113.743 Y107.52 E67.9314
G0 F3600 X113.912 Y108.255
G1 F1800 X128.957 Y123.3 E68.46215
